X:1
T:Title
%%score { 1 | ( 2 3 ) }
L:1/8
M:4/4
K:Eb
V:1 treble nm="Grand Piano"
V:2 bass 
V:3 bass 
V:1
 z4 z2[Q:1/4=108] E2 | B3 B B2 G2 | G2 E4 E2 | [DF]3 [DF] [DB]2 [DF]2 | [EG]6 [EG]2 | %5
 [Ec]3 [Ec] [Ec]2 [EG]2 | [CFA]2 [=B,DG]4 [B,DG]2 | [CEG]3 [CEG] [CE=A]2 [CEA]2 | [B,DB]6 [EB]2 | %9
 [Ge]3 [Ge] [Ad]2 .[CAc]2 | [EGB]2 [B,GB]4 [B,EB]2 | [B,EB]3 [B,EB] [B,DB]2 [B,DA]2 | %12
 [B,EG]6 [EB]2 | [Ge]3 [EB] [DA]2 [EG]2 | [Ec]2 [Ec]4 [Ec]2 | [EB]3 [EB] [DA]2 [B,D]2 | %16
[M:3/4] [B,E]6 |[M:1/4] [Ge]2 |[M:4/4] [Ge]3 [GB] [GB]2 B2 | B3 G G2 G2 |[M:2/4] [DF]2 [DF]2 | %21
 [DB]2 [DF]2 |[M:3/4] [EG]6 |[M:1/4] [Ge]2 |[M:4/4] [Ge]3 [GB] [GB]2 B2 | B3 G G2 G2 | %26
[M:2/4] [DF]2 [DF]2 | [EG]3 [DF] |[M:3/4] E6 |] %29
V:2
 z4 z2 E,2 | [E,G,E]3 [E,G,E] [E,G,E]2 [E,B,E]2 | [E,B,E]2 [E,G,]4 [C,G,]2 | %3
 [B,,B,]3 [B,,B,] [B,,B,]2 [B,,B,]2 | [E,B,]6 [E,B,]2 | [C,C]3 [C,C] [C,C]2 [C,C]2 | %6
 F,,2 G,,4 G,,2 | C,3 C, F,2 F,,2 | B,,6 [E,G,]2 | [E,B,]3 [E,B,] [E,B,]2 z D | E,2 E,4 G,2 | %11
 G,3 G, F,2 B,,2 | E,6 [E,G,]2 | [E,B,]3 [E,G,] [B,,F,]2 [C,E,]2 | [A,,A,]2 [A,,A,]4 [=A,,_G,]2 | %15
 [B,,G,]3 [B,,G,] [B,,F,]2 [B,,A,]2 |[M:3/4] [E,G,]6 |[M:1/4] [E,B,]2 | %18
[M:4/4] [E,B,]3 [E,E] [E,E]2 [G,B,E]2 | [G,B,E]3 [E,B,E] [E,B,E]2 [E,B,E]2 | %20
[M:2/4] [B,,B,]2 [B,,B,]2 | [B,,B,]2 [B,,B,]2 |[M:3/4] [E,B,]6 |[M:1/4] [E,B,]2 | %24
[M:4/4] [E,B,]3 [E,E] [E,E]2 [G,B,E]2 | [G,B,E]3 [E,B,E] [E,B,E]2 [E,B,E]2 | %26
[M:2/4] [B,,B,]2 [B,,B,]2 | [B,,B,]3 [B,,A,] |[M:3/4] [E,G,]6 |] %29
V:3
 x8 | x8 | x8 | x8 | x8 | x8 | x8 | x8 | x8 | z4 z2 E,2 | x8 | x8 | x8 | x8 | x8 | x8 |[M:3/4] x6 | %17
[M:1/4] x2 |[M:4/4] x8 | x8 |[M:2/4] x4 | x4 |[M:3/4] x6 |[M:1/4] x2 |[M:4/4] x8 | x8 |[M:2/4] x4 | %27
 x4 |[M:3/4] x6 |] %29

